X: 2
T: Reel du Goglu
M: 4/4
L: 1/8
C: Trad.
S: Arr. Chris Ricker
R: Reel
K: D
fg|afge dfed|(3cd^d ec ABAG|FAdf gfed|(3cd^d ec A2fg|!
afge dfed|(3cd^d ec ABAG|FAdf gecd|ed (3ddd d2:|!
 cd|eA (3AAA Adfd|eA (3AAA Adfd|gfeg fedf|edcB AGFE|!
DFAc d2cB|Ace^g a2^ga|(3bb^g af gecd|ed (3ddd d2:|!
